dist/images/info/img4.svg

<svg width="34" height="34" viewBox="0 0 34 34" fill="none" xmlns="http://www.w3.org/2000/svg">
<path d="M27.9116 2.03194C22.2929 -0.0595681 22.5629 0.00032975 22.2238 0.00032975C11.0929 0.00165786 11.7466 -0.00538113 11.6089 0.0119507C11.3553 0.0442239 11.5333 0.00504456 6.08807 2.03194C2.43954 3.39239 0 6.87563 0 10.7995V17.0002C0 17.7337 0.594596 18.3283 1.32811 18.3283H5.33928V32.6719C5.33928 33.4054 5.93387 34 6.66739 34H27.3322C28.0657 34 28.6603 33.4054 28.6603 32.6719V18.3283H32.6715C33.405 18.3283 33.9996 17.7337 33.9996 17.0002V10.7995C33.9997 6.90558 31.5884 3.40289 27.9116 2.03194ZM20.2958 2.65655L20.1422 3.0595C19.6484 4.35435 18.3856 5.22426 16.9998 5.22426C15.6141 5.22426 14.3512 4.35435 13.8575 3.0595L13.7039 2.65655H20.2958ZM31.3435 15.6721H28.6604V11.7762C28.6604 11.0427 28.0658 10.4481 27.3323 10.4481C26.5988 10.4481 26.0042 11.0427 26.0042 11.7762V31.3438H7.9955V11.7763C7.9955 11.0428 7.40091 10.4482 6.66739 10.4482C5.93387 10.4482 5.33928 11.0428 5.33928 11.7763V15.6721H2.65622V10.7995C2.65622 8.01642 4.40834 5.4932 7.01602 4.52082L11.0047 3.03354C11.2779 3.57083 11.5871 5.4418 13.5849 6.81819C15.6342 8.22991 18.3495 8.2408 20.4146 6.81819C22.4127 5.44167 22.7259 3.56233 22.9949 3.03354L26.9835 4.52082C29.5913 5.4932 31.3433 8.01642 31.3433 10.7995V15.6721H31.3435Z" fill="#0D0D0D"/>
</svg>

<svg width="34" height="34" fill="none" xmlns="http://www.w3.org/2000/svg"><path d="M27.912 2.032C22.292-.06 22.562 0 22.224 0 11.093.002 11.747-.005 11.609.012c-.254.032-.076-.007-5.52 2.02A9.353 9.353 0 000 10.8V17c0 .734.595 1.328 1.328 1.328H5.34v14.344c0 .733.595 1.328 1.328 1.328h20.665c.734 0 1.328-.595 1.328-1.328V18.328h4.012c.733 0 1.328-.594 1.328-1.328v-6.2a9.353 9.353 0 00-6.088-8.768zm-7.616.625l-.154.402A3.382 3.382 0 0117 5.224a3.382 3.382 0 01-3.143-2.165l-.153-.402h6.592zm11.047 13.015H28.66v-3.896a1.328 1.328 0 10-2.656 0v19.568H7.995V11.776a1.328 1.328 0 10-2.656 0v3.896H2.656V10.8a6.73 6.73 0 014.36-6.278l3.989-1.487c.273.537.582 2.408 2.58 3.784a6.017 6.017 0 006.83 0c1.998-1.376 2.31-3.256 2.58-3.784l3.988 1.487a6.73 6.73 0 014.36 6.279v4.872z" fill="#0D0D0D"/></svg>
